symbols/web/report/materialsymbolsoutlined/report_wght100grad200fill1_24px.svg

<svg xmlns="http://www.w3.org/2000/svg" height="24" width="24"><path d="M8.45 20.5 3.5 15.55v-7.1L8.45 3.5h7.1l4.95 4.95v7.1l-4.95 4.95ZM12 16.725q.325 0 .538-.212.212-.213.212-.538 0-.325-.212-.537-.213-.213-.538-.213-.3 0-.525.213-.225.212-.225.537 0 .3.213.525.212.225.537.225Zm-.675-3.35h1.35v-6.15h-1.35Z"/></svg>

<svg xmlns="http://www.w3.org/2000/svg" height="24" width="24"><path d="M8.45 20.5 3.5 15.55V8.45L8.45 3.5H15.55L20.5 8.45V15.55L15.55 20.5ZM12 16.725Q12.325 16.725 12.538 16.513Q12.75 16.3 12.75 15.975Q12.75 15.65 12.538 15.438Q12.325 15.225 12 15.225Q11.7 15.225 11.475 15.438Q11.25 15.65 11.25 15.975Q11.25 16.275 11.463 16.5Q11.675 16.725 12 16.725ZM11.325 13.375H12.675V7.225H11.325Z"/></svg>
